X:13002
T:Mary Had a Baby
R:Reel
C:Trad. - Negro Spiritual
O:USA
Z:Paul Hardy's Xmas Tunebook 2019 (see www.paulhardy.net). Creative Commons cc by-nc-sa licenced.
M:4/4
L:1/8
Q:1/4=130
K:G
"G"GGGG "D7"A2B2|"G"G4"D7"ED3|"G"GGGG "D7"A2B2|"C"G2E2"D"D2z2|
"G"GGGG "D7"A2B2|"C"e4"G"d2zd|"D"ddde "G"dBGA|"D7"B2A2"G"G4|]
W:Mary had a baby (Aye Lord)
W:Mary had a baby (Oh My Lord)
W:Mary had a baby (Aye Lord)
W:The people keep a-comin' and the train done gone.

